X:1
T:Title
%%score { 1 | 2 }
L:1/8
M:6/8
K:A
V:1 treble nm="Grand Piano"
V:2 bass 
V:1
 z3 z2[Q:1/4=100] [CA]/[DB]/ | [Ec]>[DB][CA] EEE | FF[Fd] [Ec]2 [Ec] | B>BB [Ec][Ec][Ec] | %4
 [A^d][Ac][Ad] [Ge]2 [E=d] | [Ec]>[DB][CA] EEE | FF[Fd] [Ec]2 [=Ge] | [Fe]>[Fd][Fd] [Fd][Fc][FB] | %8
[M:5/8] c<cB [CA]2 |[M:1/8] [Ee] |[M:3/4] [Ee]>[Ee] [Ee][CE] [DE]E | FF F [Fd]2 [Fd] | %12
 [Ed]>[DB] [CA]E EE | cB B B2 B | [Ec]>[DB] [CA]E EE | FF [Fd] [Ec]2 [=Ge] | %16
 [Fe]>[Fd] [Fd][Fd] [Fc][FB] |[M:5/8] c<cB [CA]2 |] %18
V:2
 z3 z2 [A,,E,] | [A,,A,]>[A,,A,][A,,A,] [C,A,][C,A,][C,A,] | %2
 [D,A,D][D,A,D][D,A,] [A,,A,]2 [A,,A,] | [E,G,E]>[E,G,E][E,G,E] [A,,A,][A,,A,][A,,A,] | %4
 [B,,F,][B,,B,][B,,B,] [E,B,]2 [E,G,] | [A,,A,]>[A,,A,][A,,A,] [C,A,][C,A,][C,A,] | %6
 [D,A,D][D,A,D][D,A,] [A,,A,]2 [C,A,] | [D,A,]>[D,A,][D,A,] [D,A,][D,A,][^D,A,] | %8
[M:5/8] [E,A,E]<[E,A,E][E,G,D] [A,,A,]2 |[M:1/8] [A,,C] | %10
[M:3/4] [A,,C]>[A,,C] [A,,C][A,,A,] [B,,G,][C,A,] | [D,A,D][D,A,D] [D,A,D] [D,A,]2 [D,A,] | %12
 [A,,A,]>[A,,A,] [A,,A,][A,C] [A,C][A,C] | [A,E][G,B,E] [F,A,^D] [E,G,E]2 [E,G,E] | %14
 [A,,A,]>[A,,A,] [A,,A,][C,A,] [C,A,][C,A,] | [D,A,D][D,A,D] [D,A,] [A,,A,]2 [C,A,] | %16
 [D,A,]>[D,A,] [D,A,][D,A,] [D,A,][^D,A,] |[M:5/8] [E,A,E]<[E,A,E][E,G,D] [A,,A,]2 |] %18

